X:26
T:Dull Care. JC.026
R:Air
S:John Clare,Poet,Helpston. (1793-1864)
N:Song text exists. See Deacon.
O:England
A:Northamptonshire
Z:vmp.P. Headford
M:6/8
L:1/8
Q:3/8=120
K:C
[V:1]|:G|c3 d3|e3 z2f|gag (fe)f|e3 z2G|!
[V:2]|:G|E3 G3|c3 z2d|efe (dc)d|c3 z2G|!
%
[V:1]c3 d3|e2z zff|(ef)e dcd|c3 z2:|!
[V:2]E3 G3|c2z zdd|(cd)c GGF|E3 z2:|!
%
[V:1]|:(c/d/)|g2g g2e|f2f f2d|e2e (ed)c|{e}d2z zGG|!
[V:2]|:z|e2e e2c|d2d d2B|c2c c2E|G2z zGF|!
%
[V:1]c3 d3|e3 z2f|(ef)e (dc)d|c3 z2:|!
[V:2]E3 G3|c3 z2d|GAG (FE)F|E3 z2:|!
%
[V:1]|:z|c3 d3|e3 z2f|(ga)g (fef)|e3 z2G|!
[V:2]|:z|E3 F3|c3 z2d|(ef)e (dc)d|c3 z2G|!
%
[V:1]c3 d3|e3 z2f|efe dcd|c3 z2:|!
[V:2]E3 F3|c3 z2d|cdc GGF|E3 z2:|!
%
[V:1]|:(c/d/)|g2g g2e|f2f f2d|eee (ed)c|d2z zGG|!
[V:2]|:z|e2e e2c|d2d d2B|ccc c2E|G2z zGF|!
%
[V:1]c2c ddd|e2e e2f|(ef)e (dc)d|c3 z2:|
[V:2]E2E GGG|c2c c2d|c2G G2G|G3 z2:|

